lib/preview_tmp/nrk-logo-preview-nrk-tegnspraak-with-bg.svg

<svg width="155" height="28" viewBox="0 0 155 28" fill="none" xmlns="http://www.w3.org/2000/svg">
<rect width="155" height="28" fill="#1767CE"/>
<path d="M6.66663 21V7.00123H11.26V21H6.66663ZM17.5094 9.2292L20.151 21H15.124L11.9697 7.00123H14.7892C15.4357 6.99284 16.063 7.22075 16.5535 7.64208C17.0449 8.04574 17.3824 8.60611 17.5094 9.2292ZM20.8411 21V7.00123H25.4345V21H20.8411ZM28.9038 12.3247C28.4089 12.3296 27.9218 12.2001 27.4946 11.9501C27.0731 11.7064 26.7229 11.3562 26.4793 10.9347C26.229 10.5073 26.0995 10.0202 26.1044 9.525C26.0988 9.03283 26.2284 8.54857 26.4793 8.12512C26.7255 7.70811 27.0752 7.36174 27.4946 7.11957C27.922 6.86988 28.4089 6.74039 28.9038 6.74491C29.3959 6.73961 29.8799 6.86921 30.3035 7.11957C30.7187 7.36386 31.0647 7.70995 31.309 8.12512C31.5596 8.54869 31.6892 9.03287 31.6838 9.525C31.6884 10.0201 31.5589 10.5072 31.309 10.9347C31.0673 11.3544 30.7209 11.7043 30.3035 11.9501C29.8799 12.2009 29.3955 12.3306 28.9032 12.3247H28.9038ZM32.3935 21V7.00123H36.9873V21H32.3935ZM42.8027 14.6512C42.8156 14.6648 42.9141 14.8258 43.0983 15.1343C43.2825 15.4427 43.5224 15.8371 43.8179 16.3173C44.1136 16.7973 44.4257 17.3066 44.754 17.8453C45.0824 18.384 45.3913 18.8934 45.6809 19.3734C45.9694 19.8534 46.298 20.3955 46.6666 21H41.6198C41.3041 20.4873 41.0181 20.024 40.7618 19.61C40.5056 19.1959 40.2331 18.749 39.9444 18.2692C39.6551 17.7899 39.369 17.3233 39.0862 16.8693C38.8034 16.4154 38.5604 16.0178 38.3571 15.6765C38.153 15.335 38.0116 15.1049 37.9329 14.9864C37.7379 14.6923 37.6225 14.3526 37.5981 14.0006C37.6176 13.6627 37.7263 13.3361 37.9132 13.0539C37.992 12.9225 38.1366 12.6891 38.3469 12.3539C38.5572 12.0188 38.8036 11.6212 39.0862 11.1611C39.3688 10.7011 39.6549 10.2312 39.9444 9.7514C40.234 9.27163 40.5064 8.8214 40.7618 8.40078C41.0186 7.9806 41.3046 7.51398 41.6198 7.00091H46.6666L42.7629 13.3694C42.6421 13.5585 42.574 13.7764 42.5657 14.0006C42.5787 14.236 42.6609 14.4623 42.8019 14.6512H42.8027Z" fill="white"/>
<path d="M52 8.71863H56.5246V21.0081H58.5992V8.71863H63.1043V6.97991H52V8.71863Z" fill="#D9E9FF"/>
<path d="M72.6278 12.2059C72.2485 11.7143 71.7481 11.3297 71.1755 11.0896C70.5394 10.8299 69.8571 10.7022 69.1701 10.7142C68.478 10.7024 67.7912 10.8371 67.1548 11.1094C66.5759 11.3628 66.0598 11.7406 65.6432 12.2158C65.2141 12.7151 64.8913 13.2966 64.6945 13.9249C64.4694 14.644 64.3595 15.3942 64.3689 16.1477C64.3409 17.0997 64.5406 18.0446 64.9514 18.9039C65.327 19.6485 65.9335 20.2516 66.6802 20.6229C67.5565 21.0356 68.518 21.2354 69.4862 21.2057C69.9519 21.2097 70.4174 21.18 70.8788 21.1168C71.2646 21.0613 71.6447 20.972 72.0149 20.8501C72.3821 20.7269 72.7389 20.575 73.0822 20.3957L73.2205 18.8743C72.97 18.9665 72.7163 19.0587 72.4595 19.1509C72.2026 19.2431 71.9359 19.3254 71.6593 19.3979C71.3802 19.471 71.0963 19.5238 70.8097 19.5559C70.5212 19.5888 70.231 19.6053 69.9406 19.6053C69.4218 19.6137 68.904 19.5573 68.3992 19.4374C67.9919 19.3401 67.6153 19.1432 67.3029 18.8644C66.9871 18.5638 66.7555 18.1857 66.6312 17.7678C66.502 17.3446 66.4296 16.9061 66.4158 16.4638H73.556C73.6532 15.6467 73.6165 14.8191 73.4474 14.0138C73.3085 13.3589 73.0288 12.742 72.6278 12.2059ZM67.6487 12.6801C68.1122 12.3987 68.6475 12.258 69.1895 12.2751C69.7322 12.248 70.2682 12.4046 70.7109 12.7196C71.1045 13.0336 71.3853 13.467 71.5111 13.9545C71.6096 14.315 71.6581 14.6873 71.6553 15.061H66.4589C66.4958 14.667 66.58 14.2789 66.7099 13.9051C66.8786 13.4041 67.2088 12.9733 67.6487 12.6801Z" fill="#D9E9FF"/>
<path d="M82.3583 10.971C82.0564 10.8884 81.7495 10.8257 81.4395 10.7834C81.0858 10.7358 80.7292 10.7127 80.3722 10.7142C79.7277 10.7116 79.0892 10.8393 78.4952 11.0896C77.9 11.3416 77.3597 11.7073 76.9047 12.1664C76.4197 12.6614 76.0459 13.2542 75.8081 13.9051C75.5325 14.668 75.3986 15.4749 75.413 16.286C75.3913 17.1782 75.5631 18.0646 75.9165 18.8842C76.2262 19.5851 76.7391 20.1769 77.3888 20.5833C78.0996 21.0027 78.9148 21.2117 79.7396 21.186C80.4643 21.1834 81.1819 21.0426 81.8538 20.771C82.2553 20.6075 82.6339 20.3924 82.98 20.1312V20.6723C82.9881 21.1174 82.9248 21.561 82.7926 21.9862C82.6785 22.3428 82.4823 22.6677 82.2196 22.9346C81.9365 23.2064 81.5901 23.4033 81.2117 23.5075C80.7195 23.6427 80.2104 23.7059 79.7001 23.6952C79.2942 23.6946 78.8887 23.6716 78.4854 23.6261C78.0617 23.5782 77.6423 23.499 77.2304 23.389C76.8062 23.276 76.3904 23.1341 75.9856 22.9642L76.203 24.7029C76.5663 24.8503 76.9394 24.9725 77.3196 25.0684C77.7194 25.1694 78.1252 25.2453 78.5344 25.2956C78.9671 25.3488 79.4026 25.3753 79.8385 25.3747C80.8109 25.4052 81.7774 25.2125 82.6638 24.8116C83.3836 24.4764 83.986 23.9326 84.3927 23.2507C84.7906 22.5499 84.9921 21.7547 84.9759 20.9489V10.7142L83.0432 11.2114C82.8202 11.117 82.5914 11.0367 82.3583 10.971ZM82.7235 18.8842C82.4787 19.0264 82.2246 19.1519 81.9628 19.2596C81.7322 19.3543 81.4943 19.4303 81.2515 19.4868C81.015 19.5403 80.7732 19.5668 80.5307 19.5658C79.9371 19.5873 79.3482 19.4545 78.8212 19.1805C78.3622 18.9185 78.0067 18.507 77.8139 18.0148C77.5757 17.3739 77.465 16.6927 77.4879 16.0094C77.479 15.4641 77.5556 14.9207 77.7148 14.3991C77.8442 13.9704 78.067 13.5756 78.3671 13.2432C78.6593 12.9342 79.017 12.6945 79.414 12.5418C79.865 12.3709 80.3444 12.2871 80.8267 12.2948C81.138 12.2946 81.4488 12.321 81.7556 12.3739C82.0698 12.4293 82.38 12.5052 82.6843 12.6011C82.7811 12.6314 82.8818 12.6716 82.9806 12.7084V18.732C82.8937 18.7841 82.8051 18.8374 82.7235 18.8842Z" fill="#D9E9FF"/>
<path d="M95.7835 11.1291C95.1965 10.8326 94.5439 10.6899 93.8868 10.7142C93.3133 10.7153 92.7434 10.8053 92.1974 10.9809C91.6348 11.1602 91.0996 11.4161 90.6069 11.7416C90.4163 11.8671 90.2328 12.0051 90.0537 12.1467V10.734L88.0384 11.0303V21.0082H90.0537V13.504C90.2488 13.3898 90.45 13.2862 90.6563 13.1938C90.9338 13.071 91.2174 12.9622 91.5059 12.8678C91.7834 12.7771 92.0674 12.7078 92.3555 12.6604C92.6265 12.6153 92.9007 12.5921 93.1755 12.5912C93.4979 12.5837 93.8191 12.6339 94.1238 12.7394C94.3753 12.83 94.5997 12.983 94.7759 13.184C94.9573 13.4019 95.0858 13.6589 95.1513 13.9348C95.2355 14.284 95.2753 14.6425 95.2698 15.0017V21.0082H97.2851V14.5868C97.3114 13.8377 97.1836 13.0913 96.9097 12.3936C96.6866 11.8579 96.29 11.4126 95.7835 11.1291Z" fill="#D9E9FF"/>
<path d="M106.512 16.4638C106.309 16.2494 106.076 16.0663 105.82 15.9204C105.555 15.7686 105.277 15.6397 104.99 15.5352C104.779 15.4693 104.572 15.4001 104.368 15.3277C104.164 15.2553 103.959 15.1894 103.755 15.1301C103.551 15.0708 103.353 15.0083 103.162 14.9424C102.983 14.8815 102.809 14.8088 102.639 14.7251C102.476 14.6388 102.321 14.5397 102.175 14.4287C102.039 14.3267 101.925 14.1992 101.839 14.0533C101.752 13.9035 101.707 13.7327 101.71 13.5594C101.705 13.3689 101.753 13.1807 101.849 13.016C101.952 12.8542 102.095 12.7216 102.264 12.6307C102.471 12.5171 102.694 12.4371 102.926 12.3936C103.215 12.338 103.51 12.3116 103.805 12.3146C103.95 12.3146 104.108 12.3215 104.279 12.3343C104.451 12.3472 104.638 12.3709 104.842 12.4035C105.047 12.4361 105.25 12.4796 105.454 12.5319C105.659 12.5843 105.866 12.6439 106.077 12.7098C106.273 12.7698 106.464 12.8424 106.65 12.9271L106.788 11.3267C106.538 11.2213 106.291 11.1291 106.048 11.0501C105.804 10.9712 105.557 10.9053 105.307 10.8525C105.062 10.8007 104.815 10.7644 104.566 10.7438C104.322 10.7241 104.081 10.7142 103.844 10.7142C103.299 10.7086 102.754 10.7717 102.224 10.9019C101.771 11.012 101.34 11.1991 100.95 11.4551C100.596 11.689 100.307 12.0084 100.11 12.3837C99.9037 12.7973 99.8019 13.2553 99.8139 13.7174C99.8078 14.0503 99.8614 14.3815 99.9722 14.6954C100.066 14.9589 100.206 15.2032 100.387 15.4166C100.563 15.6182 100.766 15.7944 100.99 15.9402C101.223 16.0933 101.471 16.2224 101.731 16.3255C101.875 16.3782 102.027 16.4309 102.185 16.4836C102.343 16.5362 102.498 16.5856 102.649 16.6317C102.801 16.6782 102.949 16.7239 103.094 16.77C103.239 16.8161 103.38 16.8622 103.518 16.9083C103.657 16.9544 103.792 16.9973 103.924 17.0368C104.1 17.0994 104.272 17.1754 104.437 17.264C104.582 17.3408 104.718 17.4335 104.843 17.5406C104.952 17.6361 105.039 17.754 105.099 17.8864C105.16 18.0232 105.19 18.1714 105.188 18.321C105.195 18.4672 105.17 18.6131 105.113 18.7481C105.057 18.8831 104.971 19.0038 104.862 19.1015C104.617 19.3059 104.325 19.4452 104.012 19.5065C103.646 19.5874 103.272 19.6272 102.896 19.6251C102.662 19.6235 102.428 19.607 102.195 19.5757C101.938 19.5432 101.668 19.4971 101.385 19.4374C101.102 19.3777 100.812 19.3052 100.515 19.22C100.219 19.1346 99.9196 19.0391 99.6166 18.9336L99.6956 20.613C100.038 20.7315 100.35 20.827 100.634 20.8995C100.918 20.9719 101.188 21.0345 101.444 21.0872C101.692 21.1385 101.943 21.1715 102.195 21.186C102.438 21.1991 102.685 21.2057 102.936 21.2057C103.487 21.2085 104.037 21.1522 104.576 21.0378C105.05 20.9413 105.504 20.7642 105.919 20.5142C106.293 20.286 106.602 19.9664 106.818 19.5856C107.045 19.1675 107.157 18.6974 107.144 18.2222C107.152 17.8755 107.095 17.5304 106.976 17.2047C106.87 16.9304 106.712 16.6789 106.512 16.4638Z" fill="#D9E9FF"/>
<path d="M117.132 11.3366C116.423 10.9024 115.602 10.686 114.771 10.7142C114.277 10.7166 113.786 10.7796 113.309 10.9019C112.792 11.0331 112.294 11.229 111.827 11.4848C111.734 11.5351 111.642 11.5911 111.55 11.6478V10.7339L109.535 11.0501V25.1573H111.55V20.7338C111.564 20.7394 111.576 20.7457 111.59 20.7513C111.955 20.903 112.336 21.0124 112.726 21.0773C113.186 21.1532 113.652 21.1896 114.119 21.186C115.008 21.2012 115.885 20.976 116.658 20.5339C117.416 20.0845 118.032 19.4305 118.436 18.6471C118.902 17.713 119.13 16.6776 119.098 15.6339C119.116 14.7515 118.944 13.8755 118.594 13.0654C118.285 12.3594 117.777 11.7587 117.132 11.3366ZM116.608 17.9456C116.371 18.4704 115.973 18.9062 115.472 19.1904C114.915 19.482 114.293 19.625 113.664 19.6053C113.363 19.6055 113.063 19.5823 112.765 19.5362C112.453 19.4864 112.146 19.4103 111.846 19.3089C111.752 19.276 111.649 19.2385 111.55 19.2022V12.9669C111.576 12.9547 111.603 12.9389 111.629 12.9271C111.919 12.7954 112.189 12.6834 112.439 12.5912C112.676 12.5027 112.921 12.4366 113.17 12.3936C113.392 12.3554 113.617 12.3356 113.842 12.3343C114.451 12.3142 115.056 12.4466 115.601 12.7196C116.077 12.979 116.45 13.394 116.658 13.8952C116.909 14.5364 117.027 15.2222 117.004 15.9105C117.025 16.6099 116.889 17.3051 116.608 17.9456Z" fill="#D9E9FF"/>
<path d="M125.676 10.8617C125.307 10.9607 124.954 11.1139 124.63 11.3162C124.292 11.5265 123.981 11.7751 123.701 12.0571C123.654 12.1035 123.609 12.1559 123.563 12.2049V10.7333L121.547 11.0297V21.0075H123.563V13.5429C123.712 13.4383 123.867 13.3414 124.027 13.2524C124.225 13.1436 124.429 13.0479 124.64 12.966C124.843 12.8869 125.051 12.8178 125.262 12.7585C125.479 12.6982 125.7 12.6552 125.923 12.6301C126.163 12.6035 126.404 12.5968 126.645 12.6103L126.882 10.753C126.477 10.7239 126.07 10.7606 125.676 10.8617Z" fill="#D9E9FF"/>
<path d="M137.275 19.7634C137.13 19.7766 136.985 19.7548 136.851 19.6997C136.717 19.6447 136.598 19.5581 136.504 19.4473C136.321 19.1307 136.245 18.7634 136.287 18.4001L136.326 14.3299C136.331 13.9032 136.278 13.4779 136.168 13.0654C136.072 12.7037 135.912 12.3623 135.694 12.0577C135.474 11.7599 135.195 11.511 134.874 11.3267C134.501 11.115 134.098 10.9618 133.679 10.8722C133.166 10.7615 132.643 10.7085 132.118 10.7142C131.702 10.714 131.286 10.7404 130.873 10.7932C130.483 10.8423 130.097 10.9182 129.717 11.0204C129.365 11.1159 129.019 11.2314 128.68 11.3662L128.443 13.0456C128.772 12.9271 129.085 12.8283 129.381 12.7493C129.678 12.6702 129.964 12.6044 130.241 12.5517C130.512 12.4999 130.786 12.4636 131.061 12.443C131.331 12.4233 131.597 12.4134 131.861 12.4134C132.264 12.4049 132.666 12.4514 133.056 12.5517C133.341 12.623 133.603 12.7658 133.817 12.9666C134.008 13.162 134.144 13.4038 134.212 13.668C134.297 13.9937 134.336 14.3294 134.331 14.6658L134.329 15.1617L132.019 15.3178C131.229 15.3398 130.451 15.5142 129.727 15.8315C129.186 16.0685 128.718 16.4474 128.374 16.9281C128.082 17.3559 127.927 17.8624 127.929 18.3803C127.926 18.8663 128.044 19.3454 128.275 19.7733C128.517 20.2128 128.88 20.573 129.322 20.8105C129.861 21.0909 130.464 21.2271 131.071 21.2057C131.64 21.2188 132.206 21.125 132.74 20.9291C133.202 20.7482 133.625 20.4799 133.985 20.1388C134.122 20.0077 134.251 19.8695 134.374 19.7248C134.412 19.9294 134.484 20.1261 134.588 20.3067C134.764 20.6092 135.035 20.8453 135.358 20.9785C135.716 21.1222 136.099 21.1927 136.484 21.186C136.603 21.186 136.718 21.1827 136.83 21.1761C136.94 21.1695 137.049 21.1529 137.156 21.1267C137.262 21.1 137.357 21.0773 137.443 21.0575C137.52 21.0402 137.596 21.0171 137.67 20.9884L137.887 19.6646C137.778 19.702 137.666 19.7285 137.551 19.7436C137.46 19.7558 137.367 19.7624 137.275 19.7634ZM133.985 18.8743C133.771 19.0437 133.539 19.1894 133.294 19.3089C133.049 19.4277 132.79 19.514 132.523 19.5658C132.246 19.6191 131.965 19.6456 131.683 19.6448C131.361 19.654 131.041 19.5934 130.745 19.467C130.504 19.3623 130.3 19.1865 130.162 18.9632C130.025 18.7263 129.957 18.4562 129.964 18.1827C129.945 17.8533 130.036 17.5269 130.221 17.2541C130.436 17.003 130.728 16.8295 131.051 16.7601C131.556 16.6412 132.074 16.5881 132.592 16.6021H134.322L134.313 18.5631C134.213 18.6761 134.103 18.7802 133.985 18.8743Z" fill="#D9E9FF"/>
<path d="M130.962 9.13355C131.335 9.31013 131.745 9.39803 132.157 9.39039C132.581 9.39871 133.001 9.30734 133.382 9.12366C133.727 8.95623 134.017 8.69626 134.222 8.37286C134.433 8.02502 134.54 7.62372 134.528 7.21701C134.541 6.922 134.489 6.62776 134.377 6.35479C134.264 6.08181 134.093 5.83666 133.876 5.63637C133.413 5.23079 132.812 5.01858 132.197 5.04361C131.785 5.03896 131.378 5.1232 131.002 5.29059C130.649 5.44772 130.35 5.70543 130.142 6.03152C129.922 6.39415 129.812 6.81288 129.826 7.23677C129.812 7.6469 129.919 8.05209 130.132 8.40249C130.336 8.71821 130.623 8.97128 130.962 9.13355ZM131.278 6.28838C131.403 6.17782 131.548 6.09298 131.706 6.03873C131.864 5.98448 132.031 5.96189 132.197 5.97224C132.442 5.96121 132.685 6.01942 132.898 6.14019C133.071 6.24628 133.208 6.40093 133.294 6.58476C133.382 6.78357 133.426 6.9994 133.422 7.21701C133.426 7.43568 133.379 7.65222 133.284 7.84927C133.194 8.03089 133.053 8.1821 132.879 8.28394C132.663 8.39848 132.421 8.45306 132.177 8.442C131.946 8.44886 131.716 8.40151 131.505 8.3037C131.325 8.21574 131.178 8.06963 131.091 7.88878C130.993 7.67866 130.945 7.44865 130.952 7.21701C130.94 7.04815 130.963 6.8786 131.019 6.71886C131.075 6.55912 131.163 6.41261 131.278 6.28838Z" fill="#D9E9FF"/>
<path d="M145.849 21.0081H148.458L143.665 15.6076L148.359 10.9315H145.889L142.508 14.646H141.779V6.09081L139.764 6.38717V21.0081H141.779V16.1674H141.812L145.849 21.0081Z" fill="#D9E9FF"/>
</svg>

<svg xmlns="http://www.w3.org/2000/svg" viewBox="0 0 155 28"><path fill="#1767CE" d="M0 0h155v28H0z"/><path fill="#fff" d="M6.667 21V7.001h4.593V21H6.667ZM17.509 9.23 20.151 21h-5.027L11.97 7.001h2.82a2.655 2.655 0 0 1 1.764.641c.49.404.828.964.955 1.587ZM20.841 21V7.001h4.593V21h-4.593Zm8.063-8.675a2.78 2.78 0 0 1-2.425-1.39 2.736 2.736 0 0 1-.375-1.41 2.686 2.686 0 0 1 .375-1.4 2.812 2.812 0 0 1 3.825-1.005c.415.244.76.59 1.005 1.005.25.424.38.908.375 1.4.004.495-.125.982-.375 1.41a2.8 2.8 0 0 1-1.006 1.015c-.423.25-.908.38-1.4.375ZM32.394 21V7.001h4.593V21h-4.593Zm10.409-6.349c.013.014.111.175.295.483.184.309.424.703.72 1.183a373.133 373.133 0 0 1 1.863 3.056c.288.48.617 1.022.986 1.627H41.62l-.858-1.39a127.3 127.3 0 0 1-.818-1.34c-.289-.48-.575-.947-.858-1.4a71.148 71.148 0 0 1-.729-1.194 20.758 20.758 0 0 0-.424-.69 2.04 2.04 0 0 1-.335-.985c.02-.338.128-.665.315-.947.079-.132.224-.365.434-.7a206.222 206.222 0 0 0 1.598-2.602c.289-.48.561-.93.817-1.351L41.62 7h5.047l-3.904 6.368c-.12.19-.189.407-.197.632.013.235.095.461.236.65Z"/><path fill="#D9E9FF" d="M52 8.719h4.525v12.29h2.074V8.718h4.505v-1.74H52v1.74ZM72.628 12.206a3.585 3.585 0 0 0-1.453-1.116 5.071 5.071 0 0 0-2.005-.376 4.91 4.91 0 0 0-2.015.395 4.307 4.307 0 0 0-1.512 1.107c-.429.5-.752 1.08-.948 1.709a7.142 7.142 0 0 0-.326 2.223 5.982 5.982 0 0 0 .582 2.756 3.863 3.863 0 0 0 1.73 1.719 6.144 6.144 0 0 0 2.805.583c.466.004.931-.026 1.393-.09a6.668 6.668 0 0 0 1.136-.266 7.367 7.367 0 0 0 1.067-.454l.139-1.522c-.251.093-.505.185-.761.277a9.493 9.493 0 0 1-.8.247 5.98 5.98 0 0 1-.85.158c-.289.033-.579.05-.87.05a6.233 6.233 0 0 1-1.54-.169 2.529 2.529 0 0 1-1.097-.573 2.497 2.497 0 0 1-.672-1.096 5 5 0 0 1-.215-1.304h7.14a7.57 7.57 0 0 0-.109-2.45 4.618 4.618 0 0 0-.82-1.808Zm-4.98.474a2.799 2.799 0 0 1 1.541-.405 2.416 2.416 0 0 1 1.522.445c.394.314.674.747.8 1.234.099.361.147.733.144 1.107H66.46c.037-.394.121-.782.25-1.156.17-.5.5-.932.94-1.225ZM82.358 10.971a7.139 7.139 0 0 0-.919-.188 7.758 7.758 0 0 0-1.067-.069 4.784 4.784 0 0 0-1.877.376 4.964 4.964 0 0 0-1.59 1.076 4.874 4.874 0 0 0-1.097 1.74 6.66 6.66 0 0 0-.395 2.38c-.022.892.15 1.779.504 2.598.31.701.822 1.293 1.472 1.7.71.419 1.526.628 2.35.602a5.696 5.696 0 0 0 2.115-.415 5 5 0 0 0 1.126-.64v.541a4.17 4.17 0 0 1-.187 1.314 2.39 2.39 0 0 1-.573.949 2.36 2.36 0 0 1-1.008.573 5.288 5.288 0 0 1-1.512.187c-.406 0-.811-.023-1.215-.069a8.614 8.614 0 0 1-1.255-.237 9.604 9.604 0 0 1-1.244-.425l.217 1.739a8.5 8.5 0 0 0 1.117.365c.4.101.805.177 1.214.228.433.053.869.08 1.304.079a6.371 6.371 0 0 0 2.826-.563 3.959 3.959 0 0 0 1.729-1.561c.398-.701.6-1.496.583-2.302V10.714l-1.933.497a5.778 5.778 0 0 0-.685-.24Zm.365 7.913a6.244 6.244 0 0 1-.76.376c-.23.094-.469.17-.712.227-.236.053-.478.08-.72.079a3.436 3.436 0 0 1-1.71-.386 2.314 2.314 0 0 1-1.007-1.165 5.251 5.251 0 0 1-.326-2.006 5.224 5.224 0 0 1 .227-1.61c.13-.429.352-.823.652-1.156.292-.309.65-.549 1.047-.701.451-.171.93-.255 1.413-.247.311 0 .622.026.929.079.314.055.624.131.928.227.097.03.198.07.297.107v6.024l-.257.152ZM95.784 11.13a3.888 3.888 0 0 0-1.897-.416 5.553 5.553 0 0 0-1.69.267 6.424 6.424 0 0 0-1.59.76c-.19.126-.374.264-.553.406v-1.413l-2.016.296v9.978h2.016v-7.504c.195-.114.396-.218.602-.31a9.07 9.07 0 0 1 .85-.326c.277-.09.561-.16.85-.208.27-.045.545-.068.82-.069.322-.007.643.043.948.148.251.091.476.244.652.445.181.218.31.475.375.75.085.35.124.709.119 1.068v6.006h2.015v-6.421a5.476 5.476 0 0 0-.375-2.193 2.59 2.59 0 0 0-1.126-1.265ZM106.512 16.464a2.996 2.996 0 0 0-.692-.544 5.36 5.36 0 0 0-.83-.385 17.1 17.1 0 0 1-.622-.207 11.092 11.092 0 0 0-.613-.198c-.204-.06-.402-.122-.593-.188a4.367 4.367 0 0 1-.523-.217 3.378 3.378 0 0 1-.464-.296 1.284 1.284 0 0 1-.336-.376.951.951 0 0 1-.129-.494c-.005-.19.043-.378.139-.543.103-.162.246-.294.415-.385.207-.114.43-.194.662-.237.289-.056.584-.082.879-.08a6.398 6.398 0 0 1 1.037.09c.205.032.408.076.612.128.205.052.412.112.623.178.196.06.387.132.573.217l.138-1.6a9.34 9.34 0 0 0-.74-.277 7.33 7.33 0 0 0-.741-.198 5.95 5.95 0 0 0-.741-.108 8.976 8.976 0 0 0-.722-.03 6.515 6.515 0 0 0-1.62.188c-.453.11-.884.297-1.274.553a2.513 2.513 0 0 0-.84.929 2.824 2.824 0 0 0-.296 1.333c-.006.333.047.665.158.978.094.264.234.508.415.722.176.201.379.377.603.523.233.153.481.282.741.386a16.726 16.726 0 0 0 .918.306 42.687 42.687 0 0 1 .869.276c.139.046.274.09.406.129.176.062.348.138.513.227.145.077.281.17.406.277a1.017 1.017 0 0 1 .345.78.977.977 0 0 1-.326.78 1.895 1.895 0 0 1-.85.405c-.366.081-.74.121-1.116.12a5.549 5.549 0 0 1-.701-.05 10.028 10.028 0 0 1-.81-.139c-.283-.06-.573-.132-.87-.217a17.41 17.41 0 0 1-.898-.286l.079 1.679c.342.119.654.214.938.287.284.072.554.135.81.187.248.052.499.085.751.099.243.013.49.02.741.02a7.712 7.712 0 0 0 1.64-.168 4.243 4.243 0 0 0 1.343-.524c.374-.228.683-.548.899-.928.227-.418.339-.889.326-1.364a2.778 2.778 0 0 0-.168-1.017 2.314 2.314 0 0 0-.464-.741ZM117.132 11.337a4.245 4.245 0 0 0-2.361-.623 6.004 6.004 0 0 0-1.462.188 6.322 6.322 0 0 0-1.759.746v-.914l-2.015.316v14.107h2.015v-4.423l.04.017c.365.152.746.261 1.136.326.46.076.926.113 1.393.109a4.944 4.944 0 0 0 2.539-.652 4.695 4.695 0 0 0 1.778-1.887c.466-.934.694-1.97.662-3.013a6.16 6.16 0 0 0-.504-2.569 3.967 3.967 0 0 0-1.462-1.728Zm-.524 6.609c-.237.524-.635.96-1.136 1.244a3.65 3.65 0 0 1-1.808.415 5.65 5.65 0 0 1-1.818-.296c-.094-.033-.197-.07-.296-.107v-6.235c.026-.012.053-.028.079-.04.29-.132.56-.244.81-.336a4.07 4.07 0 0 1 1.403-.257 3.659 3.659 0 0 1 1.759.386c.476.259.849.674 1.057 1.175.251.641.369 1.327.346 2.016.021.699-.115 1.394-.396 2.035ZM125.676 10.862a3.869 3.869 0 0 0-1.046.454 5.12 5.12 0 0 0-.929.741c-.047.046-.092.099-.138.148v-1.472l-2.016.297v9.978h2.016v-7.465a5.114 5.114 0 0 1 1.077-.577c.203-.08.411-.148.622-.207a4.24 4.24 0 0 1 1.383-.149l.237-1.857a3.765 3.765 0 0 0-1.206.109ZM137.275 19.763a.899.899 0 0 1-.771-.316 1.702 1.702 0 0 1-.217-1.047l.039-4.07a4.693 4.693 0 0 0-.158-1.265 3.094 3.094 0 0 0-.474-1.007 2.676 2.676 0 0 0-.82-.731 4.2 4.2 0 0 0-1.195-.455 7.034 7.034 0 0 0-1.561-.158c-.416 0-.832.026-1.245.08-.39.048-.776.124-1.156.226a9.63 9.63 0 0 0-1.037.346l-.237 1.68a11.626 11.626 0 0 1 1.798-.494c.271-.052.545-.088.82-.109.27-.02.536-.03.8-.03.403-.008.805.038 1.195.139.285.071.547.214.761.415.191.195.327.437.395.701.085.326.124.661.119.998l-.002.496-2.31.156a6.135 6.135 0 0 0-2.292.514 3.285 3.285 0 0 0-1.353 1.096 2.558 2.558 0 0 0-.445 1.452c-.003.486.115.965.346 1.393.242.44.605.8 1.047 1.038.539.28 1.142.416 1.749.395a4.542 4.542 0 0 0 1.669-.277c.462-.18.885-.45 1.245-.79.137-.131.266-.27.389-.414.038.204.11.401.214.582.176.302.447.538.77.672.358.143.741.214 1.126.207.119 0 .234-.003.346-.01.11-.006.219-.023.326-.05l.287-.069c.077-.017.153-.04.227-.069l.217-1.323a1.725 1.725 0 0 1-.336.079 2.272 2.272 0 0 1-.276.02Zm-3.29-.889c-.214.17-.446.315-.691.435a3.135 3.135 0 0 1-.771.257c-.277.053-.558.08-.84.079a2.226 2.226 0 0 1-.938-.178 1.29 1.29 0 0 1-.583-.504 1.482 1.482 0 0 1-.198-.78c-.019-.33.072-.656.257-.929a1.51 1.51 0 0 1 .83-.494 6.015 6.015 0 0 1 1.541-.158h1.73l-.009 1.961c-.1.113-.21.217-.328.311ZM130.962 9.134a2.68 2.68 0 0 0 1.195.256 2.7 2.7 0 0 0 1.225-.266c.345-.168.635-.428.84-.751a2.11 2.11 0 0 0 .306-1.156 2.036 2.036 0 0 0-.652-1.58 2.4 2.4 0 0 0-1.679-.593 2.857 2.857 0 0 0-1.195.247 1.97 1.97 0 0 0-.86.74c-.22.363-.33.782-.316 1.206-.014.41.093.815.306 1.165.204.316.491.57.83.732Zm.316-2.846a1.266 1.266 0 0 1 .919-.316c.245-.01.488.047.701.168.173.106.31.26.396.445.088.199.132.414.128.632.004.219-.043.435-.138.632-.09.182-.231.333-.405.435-.216.114-.458.17-.702.158a1.493 1.493 0 0 1-.672-.138.896.896 0 0 1-.414-.415 1.484 1.484 0 0 1-.139-.672 1.24 1.24 0 0 1 .326-.929ZM145.849 21.008h2.609l-4.793-5.4 4.694-4.677h-2.47l-3.381 3.715h-.729V6.091l-2.015.296v14.621h2.015v-4.84h.033l4.037 4.84Z"/></svg>
